X:88
T:Gaby Boy, The
S:John Moore's Book 2
Z:Transcribed by Edmund Spriggs 05/2021
%%VWML: Moore1-4494-p68-0
F:http://www.vwml.org/record/Moore2/4494/p68
M:6/8
N:Note values in bar 13 are unclear.
N:Last note in the last bar of the second strain should be E.
N:The first strain is marked with three sharps and the second strain with two sharps.
L:1/8
K:A
(A/B/)|c2A ABA|E2AA2A|B2G GBd|dBG GAB|
c2A ABc|d2B Bcd|edc BAB|E2AA2:|
K:D
|:B|c2de2f|g3e3|a2fg2e|dBG GAB|
"N.B."c2A ABc|d2B Bcd|edc BAB|D2AA2:|




%abc
%%abc-alias none
%%abc-creator ABCexplorer 1.6.1 [02/05/2021]

